contributed-vectors/ionic_creator.svg

<svg xmlns="http://www.w3.org/2000/svg" xml:space="preserve" style="fill-rule:evenodd;clip-rule:evenodd;stroke-linecap:round;stroke-linejoin:round;stroke-miterlimit:1.5" viewBox="0 0 192 192"><path d="M164.5 21.5c0-5.519-4.481-10-10-10h-133c-5.519 0-10 4.481-10 10v133c0 5.519 4.481 10 10 10h133c5.519 0 10-4.481 10-10v-133Z" style="fill:#fff" transform="translate(8 8)"/><circle cx="96" cy="96" r="53.754" style="fill:none;stroke:#9abeff;stroke-width:3.63px"/><path d="M138.232 61.799c8.381 10.685 10.061 17.739 11.272 29.099 1.25 11.728-.515 26.156-8.641 34.706" style="fill:none;stroke:#9abeff;stroke-width:8.48px;stroke-dasharray:0,19.51,0,0" transform="matrix(.4969 .05298 -.05298 .4969 53.384 43.211)"/><path d="M132.66 56.687A53.756 53.756 0 0 0 96 42.246c-29.668 0-53.754 24.086-53.754 53.754S66.332 149.754 96 149.754a53.753 53.753 0 0 0 0 0c-29.668 0-53.754-24.086-53.754-53.754S66.332 42.246 96 42.246a53.756 53.756 0 0 1 36.66 14.441Z" style="fill:none;stroke:#9abeff;stroke-width:7.27px" transform="matrix(.49972 0 0 .49972 48.027 48.027)"/></svg>

<?xml version="1.0" encoding="UTF-8" standalone="no"?>
<!DOCTYPE svg PUBLIC "-//W3C//DTD SVG 1.1//EN" "http://www.w3.org/Graphics/SVG/1.1/DTD/svg11.dtd">
<svg width="100%" height="100%" viewBox="0 0 192 192" version="1.1" xmlns="http://www.w3.org/2000/svg" xmlns:xlink="http://www.w3.org/1999/xlink" xml:space="preserve" xmlns:serif="http://www.serif.com/" style="fill-rule:evenodd;clip-rule:evenodd;stroke-linecap:round;stroke-linejoin:round;stroke-miterlimit:1.5;">
    <g id="Layer1">
        <g transform="matrix(1,0,0,1,8,8)">
            <path d="M164.5,21.5C164.5,15.981 160.019,11.5 154.5,11.5L21.5,11.5C15.981,11.5 11.5,15.981 11.5,21.5L11.5,154.5C11.5,160.019 15.981,164.5 21.5,164.5L154.5,164.5C160.019,164.5 164.5,160.019 164.5,154.5L164.5,21.5Z" style="fill:white;"/>
        </g>
        <circle cx="96" cy="96" r="53.754" style="fill:none;stroke:rgb(154,190,255);stroke-width:3.63px;"/>
        <g transform="matrix(0.496898,0.052983,-0.052983,0.496898,53.3841,43.2114)">
            <path d="M138.232,61.799C146.613,72.484 148.293,79.538 149.504,90.898C150.754,102.626 148.989,117.054 140.863,125.604" style="fill:none;stroke:rgb(154,190,255);stroke-width:8.48px;stroke-dasharray:0,19.51,0,0;"/>
        </g>
        <g transform="matrix(0.499715,0,0,0.499715,48.0274,48.0274)">
            <path d="M132.66,56.687C122.708,47.407 109.607,42.246 96,42.246C66.332,42.246 42.246,66.332 42.246,96C42.246,125.668 66.332,149.754 96,149.754C110.582,149.754 124.538,143.83 134.667,133.341C124.538,143.83 110.582,149.754 96,149.754C66.332,149.754 42.246,125.668 42.246,96C42.246,66.332 66.332,42.246 96,42.246C109.607,42.246 122.708,47.407 132.66,56.687Z" style="fill:none;stroke:rgb(154,190,255);stroke-width:7.27px;"/>
        </g>
    </g>
</svg>
